X: 1
T: Durang's Hornpipe
R: hornpipe
Z: 2011 John Chambers <jc:trillian.mit.edu>
M: C|
L: 1/8
K: D
|: "D"DEFE DEFA | "G"B2Bd BAFE | "D"DEFE DEFD | "A7"B,A,B,C "D"D2D2- |
y2 "D"DEFE DEFA | "G"B2Bd BAFG | "A7"ABde fdec | "D"d3c d4 :|
|: "D"f2fa fedA | "G"B2Bd BAFA | "Em"GDFD E2A2 | "A7"e3f e2f2- |
y1 "D"f2fa fedA | "G"B2Bd BAFG | "A7"ABde fdec | "D"d3c d4 :|
